X: 22549
T: Lady Iveagh
R: polka
M: 2/4
K: Adorian
|EG|:A2 dB|A2 B/A/G/F/|G>F GA|G2 A/G/E/G/|
A2 AB|cd/e/ dB|G>F GB|1 A2 EG:|2 A2A2||
|:g>f ga|g2 a/g/e/g/|a>g ab|a2 b/a/g/e/|
g>f ga|g(3d/e/f/g(3d/e/f/|g(3e/f/g/ a(3e/f/g/|aa2g/a/|aa2g/a/|
ba gb|a2 ge|ge dg|e2 dB|
A2 AB|cd/e/ dB|G>F GB|1 A2A2:|2 A2 EG||

